X:18
T:Schottis efter Timas Hans
R:schottis
A:Ore, Dalarna
Z:id:hn-schottis-18
M:C|
K:D
Adcd A2FA|Adcd B4|"+"[e2A2]"+"[A2D2] "arco"g2eg|fedc B2A2|
Adcd A2FA|Adcd B4|"+"[e2A2]"+"[A2D2] "arco"c2Bc|d>edc d4:|
|:f2fe dcdf|efec A4|B2GB d2B2|ABAG F2D2|
ABAF A2FA|dcde f4|"+"[e2A2]"+"[A2D2] "+"[e2A2]"+"[A2D2]|d>edc d4:|
|:fgfe d2A2|dcdb a3f|gagf e2A2|gfgb a2d2|
f2fe d2A2|dcdb a3f|gfed ceBc|1 d2dc d4:|2 d2dc d2DE||
|:F2AF G2GE|DFAd f2fa|gfed c2Bc|dfed cBAG|
F2AF G2GE|DFAd f2fa|gfed c2Bc|1 d2dc d2DE:|2 d2dc d4||
<end>
<start>
